X:1
T:He Has Given Us His Promises
T:He Has Given Us His Promises
T:William Augustine Ogden, 1887
T:Susan Helen Peterson, 1999
T:Public Domain Courtesy of the Cyber Hymnal™
T:Public Domain Courtesy of the Cyber Hymnal™
C:William Augustine Ogden, 1887
Z:Public Domain
Z:Courtesy of the Cyber Hymnal™
%%score ( 1 2 ) ( 3 4 )
L:1/8
Q:1/4=105
M:4/4
K:Bb
V:1 treble 
V:2 treble 
V:3 bass 
V:4 bass 
V:1
 [DF]>[DF] | [DB]2 [DB]2 B2 [FB]>[Gc] | [FB]2 [FA]2 [FA]2 [FA]>[FB] | [FA]2 [EG]2 [EG]2 [EG]>[EB] | %4
w: 1.~God’s great|power di- vine now has|giv- en us All we|need for life and true|
w: 2.~To your|faith add good- ness and|know- ledge true, Then add|self- con- trol, per- se-|
w: 3.~If you|have these traits in in-|creas- ing store, They will|keep you from un- pro-|
w: 4.~An- y|per- son lack- ing these|qual- i- ties Is near-|sight- ed, blind, and he|
w: 5.~So be|ea- ger now; make your|call- ing sure. If you|do these things, you will|
 [EG]2 [DF]2 [DF]2 [DF]>[DB] | [Fd]2 [Fd]2 [Fd]2 [Ge]>[Fd] | [Ec]2 [EG]2 (cB)[FA][EG] | %7
w: god- li- ness, Through our|know- ing Him who has|call- èd us * And for|
w: ver- ance, too. Then add|god- li- ness, kind- ness,|then add, too, * Love to|
w: duc- tive lore. You’ll ef-|fect- ive be know- ing|Christ our Lord, * Be- cause|
w: does not see. He’s for-|got- ten he from his|sin is free * And that|
w: fall no more. You’ll be|wel- comed rich- ly by|Christ our Lord * A- nd|
 [DF]2 [DF]2 [CF][CF] [EG]>[EA] | [Ec]>[DB] [DB]4 ||"^Refrain" F>F | [DB]4- [DB][Fd] [Ec]>[DB] | %11
w: His own glo- ry giv- en|prom- is- es.|||
w: all, con- firm- ing God’s great|prom- is- es.|||
w: God has give- n us His|prom- is- es.|He has|giv- * en us His|
w: God has giv- en us His|prom- is- es.|||
w: gain His king- dom, through His|prom- is- es.|||
 [EB]>[EA] [EA]4 [EA]>D | [Ec-]4 [Ec][Ge] [Fd]>[Ec] | [Ec]>[DB] [DB]4 [DB]>[Ec] | %14
w: |||
w: |||
w: prom- is- es, Ve- ry|great and pre- cious prom-|is- es, So we’ll be|
w: |||
w: |||
 [Fd]2 [F_Af]2 [FAf]2 [Fd]>[Fd] | [Ec]2 [EG]2 (cB)[FA][EG] | [DF]2 [DF]2 [CF][CF] [EG]>[EA] | %17
w: |||
w: |||
w: like Him, cleansed from all|past sin. Yes, * our God|has giv- en us His prom-|
w: |||
w: |||
 [Ec]>[DB] [DB]4 |] %18
w: |
w: |
w: is- es. *|
w: |
w: |
V:2
 x2 | x4 (DE) x2 | x8 | x8 | x8 | x8 | x4 G2 x2 | x8 | x6 || F>F | x8 | x8 | x8 | x8 | x8 | %15
 x4 G2 x2 | x8 | x6 |] %18
V:3
 [B,,B,]>[B,,B,] | [B,,F,]2 [B,,F,]2 B,2 [D,B,]>[E,E] | [F,D]2 [F,C]2 [F,C]2 [F,C]>[F,D] | %3
 [F,C]2 [F,C]2 [F,C]2 [F,A,]>[F,A,] | [B,,B,]2 [B,,B,]2 [B,,B,]2 [B,,B,]>[B,,B,] | %5
 [B,,B,]2 [B,,B,]2 [B,,B,]2 [B,,B,]>[B,,B,] | [E,G,]2 [E,C]2 [E,E]2 [E,B,]2 | %7
 [F,B,]2 [F,B,]2 [F,A,][F,A,] [F,C]>F, | [B,,F,]>[B,,B,] [B,,B,]4 || [B,,F,]>F, | %10
 ([B,,F,]>[B,,F,][B,,F,]>[B,,F,] [B,,F,]>)[B,,F,] [B,,F,]>[B,,B,] | %11
 [F,C]>[F,C] [F,C]4 [F,C]>[F,B,] | %12
 ([B,,F,]>[B,,F,][B,,F,]>[B,,F,] [B,,F,]>)[B,,F,] [B,,F,]>[B,,F,] | %13
 [B,,F,]>[B,,B,] [B,,B,]4 [B,,B,]>[B,,B,] | [B,,B,]2 [B,,D]2 [B,,D]2 [B,,B,]>[B,,B,] | %15
 [E,G,]2 [E,C]2 [E,E]2 [E,B,]2 | [F,B,]2 [F,B,]2 [F,A,][F,A,] [F,C]>F, | %17
 [B,,F,]>[B,,B,] [B,,B,]4 |] %18
V:4
 x2 | x4 (B,,C,) x2 | x8 | x8 | x8 | x8 | x8 | x15/2 F,/ | x6 || x2 | x8 | x8 | x8 | x8 | x8 | x8 | %16
 x8 | x6 |] %18

